packages/Snapp/src/HisoryIcon/index.svg

<?xml version="1.0" encoding="UTF-8"?>
<svg width="24px" height="24px" viewBox="0 0 24 24" version="1.1" xmlns="http://www.w3.org/2000/svg" xmlns:xlink="http://www.w3.org/1999/xlink">
    <title>Icons/24/Hisory</title>
    <g id="Icons/24/Hisory" stroke="none" stroke-width="1" fill="none" fill-rule="evenodd">
        <rect id="Container" fill-opacity="0" fill="#D8D8D8" fill-rule="nonzero" x="0" y="0" width="24" height="24"></rect>
        <path d="M12,2.0003665 C17.5226451,2.0003665 21.9996335,6.47735491 21.9996335,12 C21.9996335,17.5226451 17.5226451,21.9996335 12,21.9996335 C6.47735491,21.9996335 2.0003665,17.5226451 2.0003665,12 C2.0003665,11.4477153 2.44808175,11 3.0003665,11 C3.55265125,11 4.0003665,11.4477153 4.0003665,12 C4.0003665,16.4180756 7.58192441,19.9996335 12,19.9996335 C16.4180756,19.9996335 19.9996335,16.4180756 19.9996335,12 C19.9996335,7.58192441 16.4180756,4.0003665 12,4.0003665 C10.3206951,4.0003665 8.7253679,4.51949153 7.39748873,5.45562095 L7.55786075,5.61710048 L9.0777835,7.13560671 C9.21801868,7.27442538 9.2945106,7.45998911 9.2945106,7.65830149 C9.2945106,7.85519736 9.21801868,8.04076108 9.07636698,8.18099627 C8.96531205,8.2920512 8.8234337,8.36412359 8.66958862,8.38851034 L8.55225569,8.39772337 L3.62277649,8.39772337 C3.248816,8.39772337 2.93674943,8.11920071 2.88733528,7.75854958 L2.88052157,7.65830149 L2.88052157,2.74015443 C2.88052157,2.33219753 3.21481959,2.00073255 3.62277649,2.00073255 C3.72854309,2.00073255 3.86180901,2.04696766 4.02257425,2.13943789 L4.1483043,2.21745965 L5.96321227,4.02718077 C7.67707479,2.72710745 9.78160796,2.0003665 12,2.0003665 Z M11.7174577,7.84480257 C12.1909901,7.84480257 12.5812681,8.20125684 12.6346061,8.66047974 L12.6408182,8.76816308 L12.6408182,13.0857968 L14.9527938,14.4341073 C15.3618211,14.6727065 15.519328,15.177254 15.3340112,15.6007965 L15.2851186,15.6969412 C15.0465193,16.1059685 14.5419719,16.2634754 14.1184293,16.0781586 L14.0222846,16.0292659 L11.2522031,14.4133851 C11.0000496,14.2662955 10.8342088,14.0099959 10.8004683,13.7242043 L10.7940972,13.6158057 L10.7940972,8.76816308 C10.7940972,8.25820515 11.2074998,7.84480257 11.7174577,7.84480257 Z" id="Combined-Shape" fill="#404040"></path>
    </g>
</svg>

<svg viewBox="0 0 24 24" xmlns="http://www.w3.org/2000/svg" fill="currentColor" focusable="false">
  <path d="M12 2c5.523 0 10 4.477 10 10s-4.477 10-10 10S2 17.523 2 12a1 1 0 012 0 8 8 0 103.397-6.544l.16.161 1.52 1.519a.73.73 0 01.218.522.73.73 0 01-.219.523.737.737 0 01-.406.208l-.118.009h-4.93a.743.743 0 01-.735-.64l-.006-.1V2.74c0-.408.334-.74.742-.74.106 0 .239.047.4.14l.125.077 1.815 1.81A9.964 9.964 0 0112 2zm-.283 5.845c.474 0 .864.356.918.815l.006.108v4.318l2.312 1.348a.924.924 0 01.381 1.167l-.049.096a.924.924 0 01-1.167.381l-.096-.049-2.77-1.616a.923.923 0 01-.452-.689l-.006-.108V8.768c0-.51.413-.923.923-.923z" fill="none"/>
</svg>
